assets/capabilities/measure_aqi.svg

<svg height="960" viewBox="0 0 960 960" width="960" xmlns="http://www.w3.org/2000/svg"><g fill="#000" fill-rule="nonzero"><path d="m275.682132 836h-37.553183c-1.059193 0-2.118385-.096131-3.177577-.192262-131.628721-5.479467-234.46666851-112.377129-234.46666851-244.26885 0-99.687838 60.75912431-189.185791 152.42740651-226.484616 36.686571-149.675954 172.840932-257.054272 328.349626-257.054272 154.545791 0 290.411282 106.513139 327.771884 255.035521 75.106366 28.743166 132.399043 93.727717 150.886764 172.170606 2.696126 11.63185-4.52564 23.2637-16.176756 26.051499-11.651116 2.691668-23.302232-4.518157-26.094648-16.150007-15.984175-67.86848-67.306858-123.528324-133.843396-145.061666-7.318056-2.403275-12.902888-8.555659-14.539822-16.053876-28.598193-134.871781-149.731281-232.733131-288.004026-232.733131-139.043067 0-260.368735 98.534267-288.485478 234.175096-1.540643 7.402086-6.836605 13.55447-14.058371 16.053876-80.691198 28.262511-134.9025878 104.590519-134.9025878 189.954839 0 109.300938 85.6019988 197.645319 194.9876808 201.106035.577741 0 1.155483.096131 1.733224.096131h35.145928c11.939986 0 21.665298 9.70923 21.665298 21.629473s-9.725312 21.725604-21.665298 21.725604z"/><circle cx="482.484703" cy="422" r="17"/><circle cx="482.484703" cy="544" r="17"/><circle cx="482.484703" cy="299" r="17"/><circle cx="387.484703" cy="483" r="17"/><circle cx="387.484703" cy="360" r="17"/><circle cx="292.484703" cy="422" r="17"/><circle cx="577.484703" cy="483" r="17"/><circle cx="577.484703" cy="360" r="17"/><circle cx="672.484703" cy="422" r="17"/><path d="m408.608327 836.326516 15.92096-40.372535h79.604799l15.257587 40.372535h38.608327l-75.09386-196h-37.679605l-75.226535 196zm82.391673-76h-52l26.066496-67zm297 92-33.972327-44.02463c17.163103-19.241379 25.744654-42.118227 25.744654-68.630542 0-28.817734-9.930713-53.246305-29.792138-73.285714-19.861426-20.039409-43.637631-30.059114-71.328617-30.059114-18.136268 0-35.100314 4.610838-50.892138 13.832513s-28.199686 21.657635-37.223585 37.307881c-9.023899 15.650247-13.535849 32.83005-13.535849 51.539409 0 28.019705 9.687421 52.160099 29.062264 72.421183 19.374843 20.261083 43.703983 30.391625 72.987422 30.391625 17.516981 0 33.397274-3.901478 47.64088-11.704433l17.251572 22.211822zm-108.602484-47c-15.370601 0-29.106971-4.921-41.20911-14.763-15.458937-12.590666-23.188406-29.703333-23.188406-51.338 0-19.418 6.139406-35.422333 18.418219-48.013 12.278813-12.590666 27.516909-18.886 45.714286-18.886 17.667357 0 32.728779 6.472667 45.184265 19.418 12.455487 12.945334 18.68323 28.683667 18.68323 47.215 0 14.186667-3.930987 27.132-11.792961 38.836l-17.490683-22.743h-44.256729l34.848862 45.087c-7.773637 3.458-16.077295 5.187-24.910973 5.187zm203.602484 31v-196h-37v196z" stroke="#000" stroke-linejoin="round" stroke-width="4"/></g></svg>

<?xml version="1.0" encoding="UTF-8"?>
<svg width="960px" height="960px" viewBox="0 0 960 960" version="1.1" xmlns="http://www.w3.org/2000/svg" xmlns:xlink="http://www.w3.org/1999/xlink">
    <title>custom-capabilities/air_quality_index</title>
    <g id="custom-capabilities/air_quality_index" stroke="none" stroke-width="1" fill="none" fill-rule="evenodd">
        <path d="M275.682132,836 L238.128949,836 C237.069756,836 236.010564,835.903869 234.951372,835.807738 C103.322651,830.328271 0.484703494,723.430609 0.484703494,591.538888 C0.484703494,491.85105 61.2438278,402.353097 152.91211,365.054272 C189.598681,215.378318 325.753042,108 481.261736,108 C635.807527,108 771.673018,214.513139 809.03362,363.035521 C884.139986,391.778687 941.432663,456.763238 959.920384,535.206127 C962.61651,546.837977 955.394744,558.469827 943.743628,561.257626 C932.092512,563.949294 920.441396,556.739469 917.64898,545.107619 C901.664805,477.239139 850.342122,421.579295 783.805584,400.045953 C776.487528,397.642678 770.902696,391.490294 769.265762,383.992077 C740.667569,249.120296 619.534481,151.258946 481.261736,151.258946 C342.218669,151.258946 220.893001,249.793213 192.776258,385.434042 C191.235615,392.836128 185.939653,398.988512 178.717887,401.487918 C98.026689,429.750429 43.8152992,506.078437 43.8152992,591.442757 C43.8152992,700.743695 129.417298,789.088076 238.80298,792.548792 C239.380721,792.548792 239.958463,792.644923 240.536204,792.644923 L275.682132,792.644923 C287.622118,792.644923 297.34743,802.354153 297.34743,814.274396 C297.34743,826.194639 287.622118,836 275.682132,836 Z" id="Path" fill="#000000" fill-rule="nonzero"></path>
        <circle id="Oval" fill="#000000" fill-rule="nonzero" cx="482.484703" cy="422" r="17"></circle>
        <circle id="Oval" fill="#000000" fill-rule="nonzero" cx="482.484703" cy="544" r="17"></circle>
        <circle id="Oval" fill="#000000" fill-rule="nonzero" cx="482.484703" cy="299" r="17"></circle>
        <circle id="Oval" fill="#000000" fill-rule="nonzero" cx="387.484703" cy="483" r="17"></circle>
        <circle id="Oval" fill="#000000" fill-rule="nonzero" cx="387.484703" cy="360" r="17"></circle>
        <circle id="Oval" fill="#000000" fill-rule="nonzero" cx="292.484703" cy="422" r="17"></circle>
        <circle id="Oval" fill="#000000" fill-rule="nonzero" cx="577.484703" cy="483" r="17"></circle>
        <circle id="Oval" fill="#000000" fill-rule="nonzero" cx="577.484703" cy="360" r="17"></circle>
        <circle id="Oval" fill="#000000" fill-rule="nonzero" cx="672.484703" cy="422" r="17"></circle>
        <path d="M408.608327,836.326516 L424.529287,795.953981 L504.134086,795.953981 L519.391673,836.326516 L558,836.326516 L482.90614,640.326516 L445.226535,640.326516 L370,836.326516 L408.608327,836.326516 Z M491,760.326516 L439,760.326516 L465.066496,693.326516 L491,760.326516 Z M788,852.326516 L754.027673,808.301886 C771.190776,789.060507 779.772327,766.183659 779.772327,739.671344 C779.772327,710.85361 769.841614,686.425039 749.980189,666.38563 C730.118763,646.346221 706.342558,636.326516 678.651572,636.326516 C660.515304,636.326516 643.551258,640.937354 627.759434,650.159029 C611.96761,659.380704 599.559748,671.816664 590.535849,687.46691 C581.51195,703.117157 577,720.29696 577,739.006319 C577,767.026024 586.687421,791.166418 606.062264,811.427502 C625.437107,831.688585 649.766247,841.819127 679.049686,841.819127 C696.566667,841.819127 712.44696,837.917649 726.690566,830.114694 L726.690566,830.114694 L743.942138,852.326516 L788,852.326516 Z M679.397516,805.326516 C664.026915,805.326516 650.290545,800.405516 638.188406,790.563516 C622.729469,777.97285 615,760.860183 615,739.225516 C615,719.807516 621.139406,703.803183 633.418219,691.212516 C645.697032,678.62185 660.935128,672.326516 679.132505,672.326516 C696.799862,672.326516 711.861284,678.799183 724.31677,691.744516 C736.772257,704.68985 743,720.428183 743,738.959516 C743,753.146183 739.069013,766.091516 731.207039,777.795516 L731.207039,777.795516 L713.716356,755.052516 L669.459627,755.052516 L704.308489,800.139516 C696.534852,803.597516 688.231194,805.326516 679.397516,805.326516 Z M883,836.326516 L883,640.326516 L846,640.326516 L846,836.326516 L883,836.326516 Z" id="AQI" stroke="#000000" stroke-width="4" fill="#000000" fill-rule="nonzero" stroke-linejoin="round"></path>
    </g>
</svg>
